X:179
T: Gechang da shengchan
N: C0301
O: China,Shandong, Cangshan
S: III, 325]
N: Ab dem letzten Takt in der ersten Zeile muss man im Falsett
N: singen.
N: Wenig Verzierungen, Glissandi und Atemzeichen.
R: Wuge, Huagu, Xiaodiao. Xin minge]
M: 2/4
L: 1/16
K: A
z2f2f2fe | f2f2c2g2 | fgfef2c2- | c2
e2cece | f2c2e4 | e2f2g2ff | e8 |
e2e2f2fa | e2c2c2bc | e2e2c2B2- | B2
g2fgfe | f2fef2fa | e2c2c2bc | e8 |
c2g2f2c2- | c2f2f2e2 | f2c2e2ef | c2a2b4 |
e2a2b2ab | e2a2b4 |
c2cea2ab | c2eeg2ff | e4f2aa | e2c2c2bc | e8

@@@ Tune index: 6180
